X:1
T:495 - RedenÃ§Ã£o
T:Letra: Eben Eugene Rexford (1848-1916)
T:Trad.: Manuel Avelino de Souza (1886-1962)
T:MÃºsica: DeLoss Smith
M:6/4
L:1/8
Q:1/2=100
K:Amaj
V:1
"E7"z12| z12| z12| z12 || "A"C6 E6 | "E7"D2E2F2 G2F2E2 | "A"A6 "D"F6| "A"E6- E6| "E7"E6 B,6| "A"A,2B,2C2 "F#m"E2F2A2| "E/B"G6 "B7"F6| "E7"B6- B6| "A"C6E6| "E7"D2E2F2 G2F2E2| "A"A6 "Bm"B4 "(B#dim)"^B2| "C#"c6- c6| "D"B6A4F2| "A"E2C2A2 F2E2C2| "B7"A,6 "E7"B,6| "A"A,6- A,6 || "A"A6G6 | F6E6| F2E2C2 B,4A,2| "E"E4^D2 "E7"=D6| "Bm"B,6"A"C6| "Bm"D6"E"E6| "E7"G2A2B2 G2F2E2| "A"c6- c6| A6G6| F6E6| "F#7"C2^B,2C2 E2D2C2| "Bm"F6- "F#7"F6| "Bm"F2^E2F2 "B#dim"A2G2A2| "A/E"c6 yy"(A/C#)"E6| y"B7"F2G2A2 "E7"c4=B2| "A"A6- A6|]
w:1.~NÃ³s i-re-mos com Cris-to Je-sus go-zar_ U-ma vi-da dee-ter-no pra-zer ea-mor,_ On-de nun-ca pe-ri-go qual-quer hÃ¡ deen-trar,_ Vi-da glo-rio-sa na gra-Ã§a do Re-den-tor!_ Sal-vos por Je-sus, can-ta-re-mos nÃ³s no cÃ©u: GlÃ³-ria, glÃ³-ria, paz, sal-va-Ã§Ã£o do Se-nhor!_ Eis que to-dos, an-jos e san-tos, sem vÃ©u,_ He-mos deo ver co-ro-a-do Rei e do cÃ©u Se-nhor._
w:2.~To-dos nÃ³s, os re-mi-dos, com gra-ti-dÃ£o,_ Jun-tos, num re-go-zi-joe-ter-nal com Deus,_ Lou-va-re-mos a quem nos deu tal sal-va-Ã§Ã£o!_ Sim, ao Cor-dei-ro de Deus e Se-nhor dos cÃ©us._
w:3.~Oh, que gran-de ver-da-de, que gran-de luz!_ Paz, fa-vor, re-den-Ã§Ã£o, a-le-gri-a,a-mor,_ Tu-do, tu-do nos vem, pe-la mor-te na cruz,_ Des-se Cor-dei-ro de Deus, di-vi-nal Se-nhor._
w:4.~Pe-la fÃ© no Se-nhor re-ce-be-mos paz,_ Dom gra-cio-so de Cris-to Je-sus, o Rei._ Deu-nos, pois, sal-va-Ã§Ã£o, queÃ© com-ple-tae ve-raz!_ Oh, sim, li-vrou-nos do jus-to ri-gor da lei!_
w:5.~TÃ£o a-le-gres se-re-mos na vi-daa-li,_ Pois ve-re-mos Je-sus que na cruz ven-ceu!_ Pro-vas e-le nos deu jÃ¡, por ter vin-doa-qui,_ Oh, que di-to-saes-pe-ran-Ã§a do po-vo seu!_
W:
W:
W:1. NÃ³s iremos com Cristo Jesus gozar
W:Uma vida de eterno prazer e amor,
W:Onde nunca perigo qualquer hÃ¡ de entrar,
W:Vida gloriosa na graÃ§a do Redentor!
W:
W:(Estribilho)
W:Salvos por Jesus, cantaremos nÃ³s no cÃ©u:
W:GlÃ³ria, glÃ³ria, paz, salvaÃ§Ã£o do Senhor!
W:Eis que todos, anjos e santos, sem vÃ©u,
W:Hemos de o ver coroado Rei e do cÃ©u Senhor.
W:
W:2. Todos nÃ³s, os remidos, com gratidÃ£o,
W:Juntos, num regozijo eternal com Deus,
W:Louvaremos a quem nos deu tal salvaÃ§Ã£o!
W:Sim, ao Cordeiro de Deus e Senhor dos cÃ©us.
W:
W:
W:
W:3. Oh, que grande verdade, que grande luz!
W:Paz, favor, redenÃ§Ã£o, alegria, amor,
W:Tudo, tudo nos vem, pela morte na cruz,
W:Desse Cordeiro de Deus, divinal Senhor.
W:
W:4. Pela fÃ© no Senhor recebemos paz,
W:Dom gracioso de Cristo Jesus, o Rei.
W:Deu-nos, pois, salvaÃ§Ã£o, que Ã© completa e veraz!
W:Oh, sim, livrou-nos do justo rigor da lei!
W:
W:5. TÃ£o alegres seremos na vida ali,
W:Pois veremos Jesus que na cruz venceu!
W:Provas ele nos deu jÃ¡, por ter vindo aqui,
W:Oh, que ditosa esperanÃ§a do povo seu!
W:
W:

